X: 528
T: Loch Earn
R: reel
B: "Preston's Twenty Four Country Dances for the Year 1804", Tho. Preston, ed. p.224
F: http://imslp.org/wiki/24_Country_Dances_for_the_Year_1804_(Preston_(publisher),_Thomas)
N: Repeats added to satisfy the dance instructions.
M: C|
L: 1/8
K: G
d |\
[G2D2G,2]dB G2BG | E2AE FD-Dd | g2dB G2BG | EAFD G2[GG,] ::
d |\
(ef).g.e (fg).a.b | (gf).g.e fd-df | (ef).g.e (fg).a.f | (fe).f.d g2Bd |
efge dBgB | ceBd ATFED | GABG EGce | dBcA G2G |]
% - - - - - - - - - - - - - - - - - - - - - - - - -
%%begintext align
%% 1st & 2d Cu. set & change sides, back again, lead
%% down the middle up again & hands 4 round.
%%endtext

%%sep 1 1 500
